assets/svg/icon_feed_post.svg

<svg width="24" height="24" viewBox="0 0 24 24" fill="none" xmlns="http://www.w3.org/2000/svg">
<path d="M19.4431 10.0181C19.134 10.0181 18.8838 10.2693 18.8839 10.5784C18.8839 10.6778 18.8839 10.7796 18.8839 10.8839V11.6281C18.8839 12.5026 18.8837 13.1306 18.8498 13.626C18.8163 14.1165 18.7518 14.4364 18.6431 14.699C18.322 15.4739 17.7063 16.0896 16.9313 16.4107C16.5476 16.5697 16.0579 16.629 15.1238 16.6451L15.1002 16.6456C14.8039 16.6507 14.5445 16.6552 14.3288 16.679C14.0971 16.7047 13.8702 16.7565 13.6523 16.8833C13.4362 17.009 13.2804 17.1769 13.1447 17.3631C13.0192 17.5355 12.8901 17.7534 12.7441 18.0001L12.3286 18.7022C12.1853 18.9445 11.8154 18.9445 11.6718 18.7022L11.2563 18.0001C11.1101 17.7531 10.9813 17.5352 10.8558 17.3631C10.7198 17.1767 10.5642 17.009 10.3481 16.8833C10.1302 16.7565 9.90361 16.7047 9.67165 16.679C9.45598 16.6552 9.19633 16.6507 8.90029 16.6456L8.87663 16.6451C7.94229 16.629 7.45269 16.5697 7.06913 16.4107C6.2942 16.0896 5.67845 15.4739 5.35741 14.699C5.24868 14.4364 5.18416 14.1165 5.15067 13.626C5.11696 13.1306 5.11651 12.5026 5.11651 11.6281V10.8839C5.11651 9.65513 5.11718 8.77259 5.1826 8.08428C5.24734 7.40424 5.37125 6.97157 5.58268 6.62663C5.84344 6.2011 6.20132 5.84322 6.62685 5.58245C6.97179 5.37103 7.40446 5.24712 8.08451 5.18237C8.77281 5.11696 9.65535 5.11629 10.8842 5.11629H13.1167C13.3072 5.11629 13.4892 5.11629 13.6634 5.11654C13.9733 5.117 14.2257 4.86636 14.2257 4.55651C14.2257 4.24986 13.9783 4.00071 13.6716 4.00025C13.5021 4 13.3269 4 13.1458 4H10.8545C9.66138 4 8.72593 4 7.97846 4.071C7.2167 4.14333 6.59292 4.29358 6.04326 4.63048C5.46748 4.98323 4.98345 5.46748 4.63048 6.04326C4.29358 6.59314 4.14333 7.2167 4.071 7.97846C4 8.72593 4 9.66138 4 10.8545V11.6486C4 12.4981 4 13.1641 4.03661 13.7019C4.0739 14.2493 4.15115 14.7048 4.32573 15.1261C4.75997 16.1745 5.59317 17.0077 6.64159 17.4419C7.24059 17.69 7.92287 17.7451 8.8572 17.7612C9.18405 17.7668 9.39101 17.771 9.54863 17.7884C9.69598 17.8047 9.75314 17.8286 9.78663 17.8483C9.8219 17.8688 9.8699 17.9061 9.9534 18.0206C10.0438 18.1445 10.1458 18.3158 10.3075 18.5892L10.7109 19.2709C11.2867 20.2436 12.7133 20.2436 13.2889 19.2709L13.6923 18.5892C13.8542 18.3158 13.9562 18.1445 14.0464 18.0206C14.1299 17.9061 14.1779 17.8688 14.2132 17.8483C14.2467 17.8288 14.3038 17.8049 14.4512 17.7884C14.609 17.771 14.816 17.7668 15.1426 17.7612C16.0767 17.7451 16.7592 17.69 17.3582 17.4419C18.4066 17.0077 19.2398 16.1745 19.6741 15.1261C19.8486 14.7048 19.9257 14.2493 19.9632 13.7019C19.9998 13.1641 19.9998 12.4981 19.9998 11.6486V10.8545C19.9998 10.7592 19.9998 10.6657 19.9998 10.5737C19.9996 10.2665 19.7503 10.0181 19.4431 10.0181Z" fill="white"/>
<path d="M16.7987 4.54899L13.6122 7.73555C13.4403 7.90724 13.3208 8.02691 13.2161 8.16108C13.0931 8.3187 12.9877 8.48927 12.9018 8.66989C12.8285 8.82349 12.7752 8.98379 12.6984 9.21442L12.2324 10.612C12.123 10.9402 12.2085 11.3021 12.453 11.5466C12.6975 11.7913 13.0594 11.8765 13.3876 11.7671L14.7852 11.3012C15.0156 11.2244 15.1761 11.171 15.3295 11.0978C15.5101 11.0119 15.6806 10.9063 15.8383 10.7835C15.9724 10.6788 16.0919 10.5593 16.2638 10.3874L19.4504 7.20085C20.1826 6.46856 20.1826 5.28128 19.4504 4.54921C18.7181 3.81693 17.531 3.81693 16.7987 4.54921V4.54899ZM15.4971 9.57542C15.2946 9.77792 15.2254 9.84579 15.152 9.90294C15.0582 9.97617 14.9568 10.0387 14.8495 10.0898C14.7655 10.1298 14.674 10.1613 14.402 10.2519L13.6305 10.5091L13.49 10.3687L13.7472 9.59708C13.8379 9.32538 13.8694 9.23362 13.9093 9.14967C13.9604 9.04228 14.0232 8.94093 14.0962 8.84716C14.1533 8.77393 14.2212 8.70472 14.4237 8.502L16.6458 6.27991C16.757 6.47816 16.9068 6.68803 17.1088 6.89008C17.3109 7.09212 17.5207 7.24193 17.719 7.35311L15.4969 9.5752L15.4971 9.57542ZM18.6611 6.41141L18.5631 6.50942C18.5511 6.50563 18.5386 6.50138 18.5258 6.49692C18.3506 6.43597 18.1182 6.32054 17.8985 6.10086C17.6788 5.8814 17.5634 5.64898 17.5024 5.4735C17.498 5.46078 17.4939 5.44828 17.4899 5.43622L17.5879 5.33821C17.8842 5.04195 18.3647 5.04195 18.6609 5.33821C18.9572 5.63447 18.9572 6.11492 18.6609 6.41119L18.6611 6.41141Z" fill="white"/>
<path d="M8 8.5H8.75" stroke="white" stroke-width="1.2" stroke-linecap="round" stroke-linejoin="round"/>
<path d="M8 11H9.5" stroke="white" stroke-width="1.2" stroke-linecap="round" stroke-linejoin="round"/>
<path d="M8 13.5H13" stroke="white" stroke-width="1.2" stroke-linecap="round" stroke-linejoin="round"/>
</svg>

<svg xmlns="http://www.w3.org/2000/svg" width="24" height="24" fill="none"><path fill="#fff" d="M19.443 10.018a.56.56 0 0 0-.56.56v1.05c0 .875 0 1.503-.033 1.998-.034.49-.098.81-.207 1.073a3.16 3.16 0 0 1-1.712 1.712c-.383.159-.873.218-1.807.234H15.1c-.296.006-.556.01-.771.034a1.7 1.7 0 0 0-.677.204 1.7 1.7 0 0 0-.507.48 9 9 0 0 0-.4.637l-.416.702a.388.388 0 0 1-.657 0L11.256 18c-.146-.247-.275-.465-.4-.637a1.7 1.7 0 0 0-.508-.48 1.7 1.7 0 0 0-.676-.204 9 9 0 0 0-.772-.033h-.023c-.935-.017-1.424-.076-1.808-.235a3.16 3.16 0 0 1-1.712-1.712c-.108-.263-.173-.582-.206-1.073-.034-.495-.034-1.123-.034-1.998v-.744c0-1.229 0-2.111.066-2.8.064-.68.188-1.112.4-1.457.26-.426.618-.784 1.044-1.045.345-.211.777-.335 1.458-.4.688-.065 1.57-.066 2.8-.066h2.778a.56.56 0 0 0 .563-.56.555.555 0 0 0-.554-.556h-2.818c-1.193 0-2.128 0-2.876.071-.761.072-1.385.223-1.935.56A4.3 4.3 0 0 0 4.63 6.042c-.336.55-.487 1.174-.559 1.935C4 8.726 4 9.661 4 10.855v.794c0 .85 0 1.515.037 2.053.037.547.114 1.003.289 1.424a4.28 4.28 0 0 0 2.316 2.316c.599.248 1.28.303 2.215.32.327.005.534.009.692.026a.6.6 0 0 1 .238.06c.035.02.083.058.166.173.09.123.193.295.354.568l.404.682c.576.973 2.002.973 2.578 0l.403-.682c.162-.273.264-.444.354-.568a.6.6 0 0 1 .167-.173.6.6 0 0 1 .238-.06c.158-.017.365-.021.692-.027.934-.016 1.616-.071 2.215-.32a4.28 4.28 0 0 0 2.316-2.315c.175-.421.252-.877.29-1.424.036-.538.036-1.204.036-2.053v-1.075a.556.556 0 0 0-.557-.556"/><path fill="#fff" d="m16.799 4.549-3.187 3.187a5 5 0 0 0-.396.425 2.7 2.7 0 0 0-.314.509c-.073.153-.127.314-.204.544l-.466 1.398a.913.913 0 0 0 1.156 1.155l1.397-.466c.23-.077.391-.13.544-.203q.272-.13.51-.315c.133-.104.253-.224.425-.396l3.186-3.186A1.875 1.875 0 0 0 16.8 4.549m-1.302 5.026c-.202.203-.272.27-.345.328a1.6 1.6 0 0 1-.302.187c-.085.04-.176.071-.448.162l-.771.257-.141-.14.257-.772a4 4 0 0 1 .162-.447 1.6 1.6 0 0 1 .187-.303c.057-.073.125-.142.328-.345l2.222-2.222a2.8 2.8 0 0 0 1.073 1.073zm3.164-3.164-.098.098-.037-.012a1.66 1.66 0 0 1-.628-.396 1.65 1.65 0 0 1-.396-.628l-.012-.037.098-.098a.759.759 0 0 1 1.073 1.073"/><path stroke="#fff" stroke-linecap="round" stroke-linejoin="round" stroke-width="1.2" d="M8 8.5h.75M8 11h1.5M8 13.5h5"/></svg>
